!!!OTL: DER SCHEFFER VON NUWEN STAT
!!!ARE: Europa, Mitteleuropa, Deutschland; France, Elsass
!!!SCT: E0933
!!!YEM: Copyright 1995, estate of Helmut Schaffrath.
**kern
*ICvox
*Ivox
*M3/4
*k[b-]
*F:
{4f
=1
2f
4f
=2
2cc
4cc
=3
2dd
4dd
=4
2cc}
{4f
=5
2cc
4ff
=6
4ee
4ee
4cc
=7
2.dd
=8
2cc}
{4f
=9
2f
4f
=10
2cc
4cc
=11
2dd
4dd
=12
2cc}
{4f
=13
2cc
4ff
=14
4ee
4ee
4cc
=15
2.dd
=16
2cc}
{4a
=17
4.cc
8b-
8a
8g
=18
4a
4f}
{4a
=19
4.cc
8b-
8a
8g
=20
4a
4f}
{4g
=21
4a
4a
4dd
=22
2cc
4a
=23
2.g
=24
2f}
==
!!!AGN: Tanz - Lied, Reigen
!!!ONB: ESAC (Essen Associative Code) Database: ERK2
!!!AMT: simple triple
!!!AIN: vox
!!!EED: Helmut Schaffrath
!!!EEV: 1.0
*-
